X:1
T:When the Harvest Comes
T:When the Harvest Comes
T:Edmund Simon Lorenz
T:Edward Albert Barnes, 1880
T:Public Domain Courtesy of the Cyber Hymnal™
C:Edmund Simon Lorenz
Z:Public Domain
Z:Courtesy of the Cyber Hymnal™
%%score ( 1 2 ) ( 3 4 )
L:1/8
Q:1/4=85
M:2/4
K:Bb
V:1 treble 
V:2 treble 
V:3 bass 
V:4 bass 
V:1
 [DF] | [DF][Fd] [DB][EG] | [DF][B,D] [DF][DB] | [CA][DB] [Ec][Fd] | [DB]3 [DF] | %5
w: 1.~We|la- bor in the|Gos- pel field With|will- ing hearts and|true; We|
w: 2.~We|glad- ly go where|He may call Our|sheaves to seek and|find; We|
w: 3.~We|take the Word as|we are shown And|sow it by the|way; We|
w: 4.~We|glad- ly spend these|pass- ing days A-|mid the rip- ening|grain; We|
 [DF][Fd] [DB][EG] | [DF][B,D] [DF][FB] | [FA][Fc] [=EG][Ec] | F3 ||"^Refrain" F/F/ | [FA]2 [FB]2 | %11
w: ga- ther in the|pre- cious yield And|ev- er keep in|view:|||
w: tell of Him who|died for all, Still|bear- ing this in|mind:|When the|har- vest|
w: oft- en reap what|has been sown, This|pre- cept to o-|bey:|||
w: give the Mas- ter|all the praise By|this our sweet re-|frain:|||
 [Fc]3 F/F/ | [FB]2 [Fc]2 | [Fd]3 [Fd] | [Ge][Ge] [Ge][Ge] | [Ge][Fd] [Ec][DB] | [Ec]2 [CA]2 | %17
w: ||||||
w: comes! When the|har- vest|comes! With|pre- cious sheaves be|rea- dy When the|har- vest|
w: ||||||
w: ||||||
 [DB]3 |] %18
w: |
w: comes.|
w: |
w: |
V:2
 x | x4 | x4 | x4 | x4 | x4 | x4 | x4 | F3 || F/F/ | x4 | x3 F/F/ | x4 | x4 | x4 | x4 | x4 | x3 |] %18
V:3
 [B,,B,] | [B,,B,][B,,B,] [B,,B,][B,,B,] | [B,,B,][B,,F,] [B,,F,][B,,F,] | F,[F,B,] [F,A,][F,A,] | %4
w: ~|~ ~ ~ ~|~ ~ ~ ~|~ ~ ~ ~|
 [B,,B,]3 [B,,B,] | [B,,B,][B,,B,] [B,,B,][B,,B,] | [B,,B,][B,,F,] [B,,B,][B,,D] | %7
w: ~ ~|~ ~ ~ ~|~ ~ ~ ~|
 [C,C][C,A,] [C,C][C,B,] | [F,A,]3 || [F,A,]/[F,A,]/ | [F,C][F,C] [F,D][F,D]/[F,D]/ | %11
w: ~ ~ ~ ~|~|When the|har- vest comes, When the|
 [F,E][F,E] [F,E][F,A,]/[F,A,]/ | [D,B,][D,B,] [F,A,][F,A,]/[F,A,]/ | B,B, B,B, | %14
w: har- vest comes, When the|har- vest comes, When the|har- vest comes! *|
 [E,B,][E,B,] [E,B,][G,B,] | B,B, B,B, | [E,G,]2 F,2 | [B,,F,]3 |] %18
w: ||||
V:4
 x | x4 | x4 | F, x3 | x4 | x4 | x4 | x4 | x3 || x | x4 | x4 | x4 | B,B, B,B, | x4 | B,B, B,B, | %16
 x2 F,2 | x3 |] %18

